!! 00045] TT[TB
!! Zh. Ch. 1-1578, 560806), Peking: 18354)
!!!OTL: Bu laodong de gu niang
!!!ARE: Asia, China,ÿZhejiang, Wenzhou
!! Ethnic Group: Han
!! MM,
!!!SCT: C1225
!!!YEM: Copyright 1995, estate of Helmut Schaffrath.
**kern
*ICvox
*Ivox
!! Mixed meters:  2/4; 3/4
*M3/4
*k[f#c#g#]
*A:
{8ff#
8bb
8aa
8bb
=1
8aa
8bb
8aa
8ff#
4bb
=2
*M2/4
8.aa
16ff#
4ff#}
=3
{8ff#
8bb
8aa
8bb
=4
8.aa
16ff#
4ff#
=5
8ee
16ee
16ee
4ff#}
=6
{8bb
16ff#
16aa
8ff#
8ff#
=7
8ff#
16ff#
16ff#
8ff#
8ff#
=8
8ff#
8ff#
4bb
=9
8.aa
16ff#
4ff#}
=10
{8ff#
16aa
16bb
8aa
8bb
=11
8aa
8ff#
8ee
8ee
=12
4ff#
8ee
8cc#}
==
!!!AGN: Xiaodiao
!! Noten kopiert.
!!    Vereinzelt Glissandi. Grundtonangabe fehlt.
!!!ONB: ESAC (Essen Associative Code) Database: CHINA
!!!AMT: irregular
!!!AIN: vox
!!!EED: Helmut Schaffrath
!!!EEV: 1.0
*-
!!!OTL: Fang fengzheng
!!!ARE: Asia, China,ÿQinghai, Dongbu)
!! I, 261
!!!SCT: C1438
!!!YEM: Copyright 1995, estate of Helmut Schaffrath.
**kern
*ICvox
*Ivox
*M2/4
*k[]
*C:
{4dd
8dd
8a
=1
4.dd
8gg
=2
4dd
8cc
8a
=3
4.g
8a}
=4
{4dd
8dd
8gg
=5
4dd
8cc
8a
=6
8cc
8a
8g
8d
=7
2g}
=8
{8g
8a
8dd
8dd
=9
8dd
8gg
4dd
=10
8g
8a
4cc
=11
8a
8cc
8a
8g}
=12
{8g
4f
8g
=13
8a
8cc
8cc
8e
=14
4.d
8g
=15
2d}
=16
{8.dd
16cc
8dd
8gg
=17
8dd
8cc
8a
8g
=18
8g
4f
8g
=19
8a
8cc
8cc
8e
=20
4.d
8g
=21
2d}
==
!!!AGN: Xiaodiao, Xiuhebao diao
!!!ONB: ESAC (Essen Associative Code) Database: HUANG
!!!AMT: simple duple
!!!AIN: vox
!!!EED: Helmut Schaffrath
!!!EEV: 1.0
*-
